X:1
T:Rude Cruz
T:Rude Cruz
T:Música e Arranjo: George Bennard
T: George Bennard
C:Música e Arranjo: George Bennard
Z:George Bennard
%%score [ 1 2 3 4 ]
L:1/8
Q:1/4=90
M:3/4
K:Bb
V:1 treble nm="Soprano" snm="S."
V:2 treble nm="Alto" snm="A."
V:3 bass nm="Tenor" snm="T."
V:4 bass nm="Bass" snm="B."
V:1
 z4 DE | F3 =E G2 | F4 FF | G3 ^F A2 | G4 GG | A3 G F2 | E2 F2 E2 | D6- | D4 DE | F3 =E G2 | %10
w: 1.Ru de|cruz se/e re|giu de la/o|di a sur|giu, co mo/em|ble ma de|ver go nha/e|dor.|* mas eu|a mo/es sa|
w: 2.Des de/a|gló ria do|céu, o Cor|dei ro de|Deus ao cal|vá rio/hu mi|lhan te bai|xou.|* Es sa|cruz tem prá|
w: 3.Nes sa|cruz pa de|ceu. e por|mim já mor|reu. meu Je|sus pa ra|dar me/o per|dão.|* Eu me/a|le gro na|
 F4 FF | G3 ^F A2 | G4 GG | A3 G F2 | e2 d2 c2 | B6- | B4 AB | c3 c c2 | c2 B2 A2 | B6- | B3 B BA | %21
w: cruz, por que|ne la Je|sus deu a|vi da por|mim pe ca|dor.||||||
w: mim vi da/e|ter na sem|fim, por que|ne la/e le|me res ga|tou.|* Sim eu|a mo/a men|sa gem da|cruz.|* a té mor|
w: cruz; de la|vem gra ça/e|luz pa ra|mi nha san|ti fi ca|ção.||||||
 G3 G G2 | B2 A2 G2 | F6- | F4 FB | d3 d d2 | d2 e2 d2 | G6- | G4 ee | d3 c B2 | F2 A2 c2 | B6- | %32
w: |||||||||||
w: rer eu a|vou pro cla|mar|* le va|rei eu tam|bém mi nha|cruz|* quan do/en|fim a co|ro a her|dar.|
w: |||||||||||
 B4 z2 |] %33
w: |
w: |
w: |
V:2
 z4 B,C | D3 ^C C2 | D4 DD | E3 E E2 | E4 EE | E3 E C2 | C2 C2 C2 | B,6- | B,4 B,C | D3 ^C =C2 | %10
w: 1.Ru de|cruz se/e re|giu de la/o|di a sur|giu, co mo/em|ble ma de|ver go nha/e|dor.|* mas eu|a mo/es sa|
w: 2.Des de/a|gló ria do|céu, o Cor|dei ro de|Deus ao cal|vá rio/hu mi|lhan te bai|xou.|* Es sa|cruz tem prá|
w: 3.Nes sa|cruz pa de|ceu. e por|mim já mor|reu. meu Je|sus pa ra|dar me/o per|dão.|* Eu me/a|le gro na|
 D4 DD | E3 E E2 | E4 EE | E3 E E2 | G2 F2 E2 | D6- | D4 CD | E3 E E2 | E2 D2 D2 | D2 ^C2 E2 | %20
w: cruz, por que|ne la Je|sus deu a|vi da por|mim pe ca|dor.|||||
w: mim vi da/e|ter na sem|fim, por que|ne la/e le|me res ga|tou.|* Sim eu|a mo/a men|sa gem da|cruz ru de|
w: cruz; de la|vem gra ça/e|luz pa ra|mi nha san|ti fi ca|ção.|||||
 D3 F FF | E3 E E2 | G2 F2 E2 | D6- | D4 DD | F3 F F2 | F2 G2 F2 | E2 E2 E2 | E4 GG | F3 E D2 | %30
w: ||||||||||
w: cruz a té mor|rer eu a|vou pro cla|mar.|* le va|rei eu tam|bém mi nha|cruz mi nha|cruz quan do/en|fim a co|
w: ||||||||||
 E2 E2 E2 | D6- | D4 z2 |] %33
w: |||
w: ro a her|dar.||
w: |||
V:3
 z4 F,F, | B,3 B, B,2 | B,4 B,B, | B,3 B, B,2 | B,4 CC | C3 B, A,2 | A,2 A,2 F,2 | F,6- | %8
w: 1.Ru de|cruz se/e re|giu de la/o|di a sur|giu, co mo/em|ble ma de|ver go nha/e|dor.|
w: 2.Des de/a|gló ria do|céu, o Cor|dei ro de|Deus ao cal|vá rio/hu mi|lhan te bai|xou.|
w: 3.Nes sa|cruz pa de|ceu. e por|mim já mor|reu. meu Je|sus pa ra|dar me/o per|dão.|
 F,4 F,F, | B,3 B, B,2 | B,4 B,B, | B,3 B, B,2 | B,4 CC | C3 B, A,2 | A,2 A,2 F,2 | F,6- | %16
w: * mas eu|a mo/es sa|cruz, por que|ne la Je|sus deu a|vi da por|mim pe ca|dor.|
w: * Es sa|cruz tem prá|mim vi da/e|ter na sem|fim, por que|ne la/e le|me res ga|tou.|
w: * Eu me/a|le gro na|cruz; de la|vem gra ça/e|luz pa ra|mi nha san|ti fi ca|ção.|
 F,4 F,F, | A,3 A, A,2 | B,2 F,2 F,2 | F,2 =E,2 G,2 | F,3 B, B,B, | B,3 B, B,2 | B,2 B,2 B,2 | %23
w: |||||||
w: * Sim eu|a mo/a men|sa gem da|cruz. ru de|cruz a té mor|rer eu a|vou pro cla|
w: |||||||
 B,6- | B,4 B,B, | B,3 B, B,2 | B,2 B,2 B,2 | B,2 B,2 B,2 | B,4 B,B, | B,3 A, B,2 | A,2 C2 F,2 | %31
w: ||||||||
w: mar|* le va|rei eu tam|bem mi nha|cruz mi nha|cruz quan do/en|fim a co|ro a her|
w: ||||||||
 F,6- | F,4 z2 |] %33
w: ||
w: dar.||
w: ||
V:4
 z4 B,,B,, | B,,3 B,, B,,2 | B,,4 B,,B,, | E,3 E, E,2 | E,4 C,C, | F,3 F, F,2 | F,2 F,2 F,2 | %7
 B,,6- | B,,4 B,,B,, | B,,3 B,, B,,2 | B,,4 B,,B,, | E,3 E, D,2 | E,4 C,C, | F,3 F, F,2 | %14
 F,2 F,2 F,2 | B,,6- | B,,4 F,F, | F,3 F, F,2 | F,,2 F,,2 F,,2 | B,,2 B,,2 B,,2 | D,3 D, D,D, | %21
 E,3 E, E,2 | E,2 E,2 E,2 | B,,6- | B,,4 B,,B,, | B,,3 B,, B,,2 | B,,2 B,,2 B,,2 | E,2 E,2 E,2 | %28
 E,4 E,E, | F,3 F, F,2 | F,2 F,2 F,2 | [B,,F,]6- | [B,,F,]4 z2 |] %33

